X:2429
T:Donal y Shiaulteyr 
C:Mrs Bridson & Caesar Cashen 
C:Traditional
O:Isle of Man
N:See KV 40,160,208,415,416 
Z:Kiaull Vannin 429 
L:1/4
M:3/4 
Q:200 
K:G 
G2 G|B c d|G A G|F E D|G2 G|B c d|g2 g|d3:| 
e2 e|d B G|d>e d|B A G|d2 d|e f g|f2 e|d3| 
g2 g|d c B|e d e|d B G|c2 c|B d c|B G A|G3|| 

